assets/img/icons/icon_linkedin.svg

<svg width="25" height="25" viewBox="0 0 25 25" fill="none" xmlns="http://www.w3.org/2000/svg">
<path d="M3.64591 1.04199C2.22176 1.04199 1.04175 2.22201 1.04175 3.64616V21.3545C1.04175 22.7786 2.22176 23.9587 3.64591 23.9587H21.3542C22.7784 23.9587 23.9584 22.7786 23.9584 21.3545V3.64616C23.9584 2.22201 22.7784 1.04199 21.3542 1.04199H3.64591ZM3.64591 3.12533H21.3542C21.6513 3.12533 21.8751 3.34912 21.8751 3.64616V21.3545C21.8751 21.6515 21.6513 21.8753 21.3542 21.8753H3.64591C3.34888 21.8753 3.12508 21.6515 3.12508 21.3545V3.64616C3.12508 3.34912 3.34888 3.12533 3.64591 3.12533ZM6.70581 4.91569C5.71704 4.91569 4.91545 5.71728 4.91545 6.70605C4.91545 7.69482 5.71704 8.49642 6.70581 8.49642C7.69458 8.49642 8.49617 7.69482 8.49617 6.70605C8.49617 5.71728 7.69458 4.91569 6.70581 4.91569ZM16.1134 9.66829C14.62 9.66829 13.6272 10.4862 13.2162 11.2633H13.1511V9.89616H10.2214V19.792H13.2813V14.9092C13.2813 13.6193 13.5377 12.3701 15.1368 12.3701C16.7115 12.3701 16.7319 13.8268 16.7319 14.9743V19.792H19.7917V14.3558C19.7917 11.6947 19.2262 9.66829 16.1134 9.66829ZM5.20841 9.89616V19.792H8.30086V9.89616H5.20841Z" fill="#FFD600"/>
</svg>

<svg width="25" height="25" fill="none" xmlns="http://www.w3.org/2000/svg"><path d="M3.646 1.042a2.622 2.622 0 00-2.604 2.604v17.709a2.622 2.622 0 002.604 2.604h17.708a2.622 2.622 0 002.604-2.604V3.646a2.622 2.622 0 00-2.604-2.604H3.646zm0 2.083h17.708a.51.51 0 01.521.521v17.709a.51.51 0 01-.52.52H3.644a.51.51 0 01-.52-.52V3.646a.51.51 0 01.52-.52zm3.06 1.79a1.79 1.79 0 100 3.581 1.79 1.79 0 000-3.58zm9.407 4.753c-1.493 0-2.486.818-2.897 1.595h-.065V9.896h-2.93v9.896h3.06v-4.883c0-1.29.257-2.539 1.856-2.539 1.575 0 1.595 1.457 1.595 2.604v4.818h3.06v-5.436c0-2.661-.566-4.688-3.679-4.688zm-10.905.228v9.896h3.093V9.896H5.208z" fill="#FFD600"/></svg>
